assets/images/icon/cart_outline.svg

<svg width="24" height="24" viewBox="0 0 24 24" fill="none" xmlns="http://www.w3.org/2000/svg">
<path d="M3.71 5.4H18.924C20.302 5.4 21.297 6.67 20.919 7.948L19.265 13.548C19.01 14.408 18.196 15 17.27 15H8.112C7.185 15 6.37 14.407 6.116 13.548L3.71 5.4ZM3.71 5.4L3 3M16.5 21C16.8978 21 17.2794 20.842 17.5607 20.5607C17.842 20.2794 18 19.8978 18 19.5C18 19.1022 17.842 18.7206 17.5607 18.4393C17.2794 18.158 16.8978 18 16.5 18C16.1022 18 15.7206 18.158 15.4393 18.4393C15.158 18.7206 15 19.1022 15 19.5C15 19.8978 15.158 20.2794 15.4393 20.5607C15.7206 20.842 16.1022 21 16.5 21ZM8.5 21C8.89782 21 9.27936 20.842 9.56066 20.5607C9.84196 20.2794 10 19.8978 10 19.5C10 19.1022 9.84196 18.7206 9.56066 18.4393C9.27936 18.158 8.89782 18 8.5 18C8.10218 18 7.72064 18.158 7.43934 18.4393C7.15804 18.7206 7 19.1022 7 19.5C7 19.8978 7.15804 20.2794 7.43934 20.5607C7.72064 20.842 8.10218 21 8.5 21Z" stroke="#4A443D" stroke-width="2" stroke-linecap="round" stroke-linejoin="round"/>
</svg>

<?xml version="1.0" encoding="UTF-8"?>
<svg id="_圖層_1" data-name="圖層_1" xmlns="http://www.w3.org/2000/svg" version="1.1" viewBox="0 0 24 24">
  <!-- Generator: Adobe Illustrator 29.6.1, SVG Export Plug-In . SVG Version: 2.1.1 Build 9)  -->
  <defs>
    <style>
      .st0 {
        fill: none;
        stroke: #6e675f;
        stroke-linecap: round;
        stroke-linejoin: round;
        stroke-width: 2px;
      }
    </style>
  </defs>
  <path class="st0" d="M3.71,5.4h15.21c1.38,0,2.37,1.27,2,2.55l-1.65,5.6c-.25.86-1.07,1.45-1.99,1.45h-9.16c-.93,0-1.74-.59-2-1.45L3.71,5.4ZM3.71,5.4l-.71-2.4M16.5,21c.4,0,.78-.16,1.06-.44s.44-.66.44-1.06-.16-.78-.44-1.06-.66-.44-1.06-.44-.78.16-1.06.44c-.28.28-.44.66-.44,1.06s.16.78.44,1.06c.28.28.66.44,1.06.44ZM8.5,21c.4,0,.78-.16,1.06-.44.28-.28.44-.66.44-1.06s-.16-.78-.44-1.06c-.28-.28-.66-.44-1.06-.44s-.78.16-1.06.44-.44.66-.44,1.06.16.78.44,1.06.66.44,1.06.44Z"/>
</svg>
